icons/Suru/scalable/apps/nvidia-settings-symbolic.svg

<?xml version="1.0" encoding="UTF-8"?>
<svg id="svg7384" width="16" height="16" version="1.1" xmlns="http://www.w3.org/2000/svg" xmlns:cc="http://creativecommons.org/ns#" xmlns:dc="http://purl.org/dc/elements/1.1/" xmlns:osb="http://www.openswatchbook.org/uri/2009/osb" xmlns:rdf="http://www.w3.org/1999/02/22-rdf-syntax-ns#">
 <metadata id="metadata20854">
  <rdf:RDF>
   <cc:Work rdf:about="">
    <dc:title/>
    <dc:format>image/svg+xml</dc:format>
    <dc:type rdf:resource="http://purl.org/dc/dcmitype/StillImage"/>
   </cc:Work>
  </rdf:RDF>
 </metadata>
 <path id="path6" d="m1.6652 7.2641s1.4466-2.1344 4.3351-2.3551v-0.77442c-3.1993 0.25694-5.9698 2.9666-5.9698 2.9666s1.5691 4.5362 5.9698 4.9515v-0.82308c-3.2295-0.40633-4.3351-3.9655-4.3351-3.9655zm4.3351 2.3285v0.75378c-2.4407-0.43513-3.1182-2.9723-3.1182-2.9723s1.1719-1.2982 3.1182-1.5087v0.82713c-1e-3 0-3e-3 -4.5e-4 -4e-3 -4.5e-4 -1.0215-0.12259-1.8195 0.83163-1.8195 0.83163s0.44722 1.6066 1.8233 2.0689m0-6.5926v1.1346c0.0939-0.0073 0.18783-0.01331 0.28227-0.01652 3.6373-0.12259 6.0072 2.9831 6.0072 2.9831s-2.7219 3.3098-5.5577 3.3098c-0.25989 0-0.50321-0.02411-0.73173-0.06454v0.88319c0.19542 0.02481 0.39804 0.03941 0.60947 0.03941 2.6389 0 4.5473-1.3477 6.3951-2.9428 0.30638 0.24537 1.5607 0.84224 1.8185 1.1036-1.757 1.471-5.8518 2.6568-8.1732 2.6568-0.22377 0-0.43867-0.01356-0.6499-0.03394v0.9473h10v-10zm0 2.8654v-0.95647c0.093-0.0065 0.18661-0.01151 0.28227-0.01453 2.6156-0.08215 4.3316 2.2477 4.3316 2.2477s-1.8534 2.5741-3.8407 2.5741c-0.286 0-0.54243-0.04596-0.7732-0.12355v-2.9001c1.0182 0.12304 1.2232 0.57283 1.8354 1.5933l1.3615-1.1481s-0.99388-1.3035-2.6693-1.3035c-0.18224 0-0.35651 0.01279-0.52757 0.03111" fill="#808080" stroke-miterlimit="10" stroke-width="0"/>
</svg>

<svg xmlns="http://www.w3.org/2000/svg" height="16" width="16">
    <path d="M1.665 7.264S3.112 5.13 6 4.91v-.774C2.801 4.39.03 7.1.03 7.1S1.6 11.637 6 12.053v-.823c-3.23-.407-4.335-3.966-4.335-3.966zM6 9.593v.753c-2.44-.435-3.118-2.972-3.118-2.972S4.054 6.076 6 5.865v.828h-.004c-1.021-.123-1.82.83-1.82.83S4.625 9.13 6 9.594M6 3v1.135c.094-.008.188-.014.282-.017 3.638-.123 6.007 2.983 6.007 2.983s-2.721 3.31-5.557 3.31c-.26 0-.503-.024-.732-.065v.884c.195.024.398.039.61.039 2.638 0 4.547-1.348 6.395-2.943.306.246 1.56.843 1.818 1.104-1.757 1.47-5.852 2.657-8.173 2.657-.224 0-.439-.014-.65-.034V13h10V3zm0 2.865V4.91c.093-.007.187-.012.282-.015 2.616-.082 4.332 2.248 4.332 2.248S8.76 9.716 6.774 9.716c-.287 0-.543-.046-.774-.123v-2.9c1.018.123 1.223.572 1.835 1.593l1.362-1.148s-.994-1.304-2.67-1.304c-.182 0-.356.013-.527.031" fill="gray"/>
</svg>
